!!!COM: Bach, Johann Sebastian
!!!CDT: 1685/3//-1750/7/28/
!!!OTL@@DE: Jesus Christus, unser Heiland
!!!AGN: 4-Part Chorale
!!!SCT: BH 030
!!!SCT: BWV 363
**harm	**root	**kern	**kern	**kern	**kern
!	!	!bass	!tenor	!alto	!soprno
*	*Iorgan	*Iorgan	*Iorgan	*Iorgan	*Iorgan
*M4/4	*M4/4	*M4/4	*M4/4	*M4/4	*M4/4
*met(c)	*met(c)	*met(c)	*met(c)	*met(c)	*met(c)
*MM60	*MM60	*MM60	*MM60	*MM60	*MM60
*k[f#c#g#d#a#]	*k[f#c#g#d#a#]	*k[f#c#g#d#a#]	*k[f#c#g#d#a#]	*k[f#c#g#d#a#]	*k[f#c#g#d#a#]
*g#:	*g#:	*g#:	*g#:	*g#:	*g#:
=1-	=1-	=1-	=1-	=1-	=1-
i	4EE	4.G#	4B	4d#	4g#
vb	4BB	.	4A#	4d#	4dd#
.	.	8F#	.	.	.
VI7	4CC	2E	4B	8g#	4dd#
.	.	.	.	8f##	.
ivb	4AA	.	8A#	4g#	4cc#
.	.	.	8G#	.	.
=2	=2	=2	=2	=2	=2
V	4BB	8D#	4A#	4f##	4dd#
.	.	8c#	.	.	.
ib	8EE	8B	8d#	8g#	8g#
-VIIb	8DD#	8A#	8c#	8f##	8a#
i	4EE	8G#	4d#	4g#	4b
.	.	8F#	.	.	.
VI	4CC	8E	8g#	4g#	4b
.	.	8D#	8f##	.	.
=3	=3	=3	=3	=3	=3
viioD7/V	4AA#	4C##	4e#	4.g#	4b
V7	4BB	4D#	8A#	.	4a#
.	.	.	16d#	8f##	.
.	.	.	16c#	.	.
i;	2EE;	2GG#;	2B;	2d#;	2g#;
=4	=4	=4	=4	=4	=4
i	4EE	8G#	4d#	4g#	4b
.	.	8F#	.	.	.
VI	4CC	4E	4e	4g#	4b
IIIb	4GG	4D#	4B	4f#	4b
VI	4CC	4E	4B	4e	4g#
=5	=5	=5	=5	=5	=5
IIIb	4GG	8E	8B	4f#	4b
.	.	8D#	16c#	.	.
.	.	.	16d#	.	.
IV	4AA	4C#	4e	8g#	4cc#
.	.	.	.	8a#	.
III	4GG	4BB	8f#	4.b	4dd#
.	.	.	16g#	.	.
.	.	.	16f#	.	.
iib	4FF#	4C#	16e	.	4cc#
.	.	.	16d#	.	.
.	.	.	8e	[8a#	.
=6	=6	=6	=6	=6	=6
ic	4EE	2D#	4d#	8a#]	4b
.	.	.	.	4g#	.
V	4BB	.	8.d#	.	4a#
.	.	.	.	8f##	.
.	.	.	16c#	.	.
i;	2EE;	2G#;	2B;	2d#;	2g#;
!!linebreak: 2
=7	=7	=7	=7	=7	=7
i	4EE	4G#	8d#	4g#	4b
.	.	.	8e	.	.
IIIb	4GG	4D#	4f#	8b	4b
.	.	.	.	8a#	.
VI	4CC	8E	4e	4g#	4b
.	.	8F#	.	.	.
VIb	4CC	8G#	4B	4e	4g#
.	.	8F#	.	.	.
=8	=8	=8	=8	=8	=8
VI	4CC	8E	4B	8g#	4b
.	.	8D#	.	8f#	.
IV	4AA	4C#	4e	8g#	4cc#
.	.	.	.	8a#	.
III	4GG	4BB	[4f#	4.b	4dd#
-VII	4DD	4F#	8.f#]	.	4cc#
.	.	.	.	8a#	.
.	.	.	16e	.	.
=9	=9	=9	=9	=9	=9
III;	2GG;	2BB;	2d#;	2f#;	2b;
r	4r	4r	4r	4r	4r
IIIb	4GG	4D#	4f#	8b	4ff#
.	.	.	.	8a	.
=10	=10	=10	=10	=10	=10
VI	4CC	4E	8e	4g#	4gg#
.	.	.	8d#	.	.
-VII	4DD	4F#	4c#	4a#y	8ff#
.	.	.	.	.	8ee
i	8EE	4.G#	8B	8b	8dd#
viioD7	8DD#	.	8e	8f##	8cc#
i	8EE	.	8d#	8g#	8b
-VIIb	8DD	8A#	8c#	[8f#	8cc#
=11	=11	=11	=11	=11	=11
III	8GG	8B	8B	8f#]	4dd#
IIIb	8GG	8D#	8f#	4b	.
V7b/-VII	8AA	8E#	8g#	.	4cc#
V7b	8BB	8F##	8d#	4a#	.
i	4EE	8G#	4d#	.	4b
.	.	8BB	.	4g#	.
viiD7/III	8FF#	8C#	8e	.	4a#
V	8BB	8D#	16d#	8f##	.
.	.	.	16c#	.	.
=12	=12	=12	=12	=12	=12
I;	2.EE;	2.GG#;	2.B#;	2.d#;	2.g#;
==	==	==	==	==	==
*-	*-	*-	*-	*-	*-
!!chor2scor: -l 2 -s 0.6 -o %b.pmx
!!!YEC: Copyright 1994, David Huron
!!!YEC: Changes/Additions 2001 by Craig Stuart Sapp
!!!YEN: United States of America
!!!SMA: 371 Bach Chorales, edited by Ludwig Erk, C.F. Peters
!!!PDT: 1850, 1865
!!!ONB: Harmony and Root analysis done manually
